packages/kaspersky-hexa-ui-icons/src/iconsSVGs/24/FileSad.svg

<svg width="24" height="24" viewBox="0 0 24 24" fill="none" xmlns="http://www.w3.org/2000/svg">
<path d="M9.5 14C10.3284 14 11 13.3284 11 12.5C11 11.6716 10.3284 11 9.5 11C8.67157 11 8 11.6716 8 12.5C8 13.3284 8.67157 14 9.5 14Z" fill="black"/>
<path d="M16 12.5C16 13.3284 15.3284 14 14.5 14C13.6716 14 13 13.3284 13 12.5C13 11.6716 13.6716 11 14.5 11C15.3284 11 16 11.6716 16 12.5Z" fill="black"/>
<path d="M9.55279 17.8944C10.038 18.1371 10.6263 17.9481 10.881 17.4731C10.8841 17.4682 10.8909 17.458 10.9016 17.4438C10.9297 17.4062 10.9819 17.3451 11.0622 17.2809C11.2102 17.1625 11.4929 17 12 17C12.5071 17 12.7898 17.1625 12.9378 17.2809C13.0181 17.3451 13.0703 17.4062 13.0984 17.4438C13.1091 17.458 13.1159 17.4682 13.119 17.4731C13.3737 17.9481 13.962 18.1371 14.4472 17.8944C14.9412 17.6474 15.1414 17.0468 14.8944 16.5528L14 17C14.8944 16.5528 14.8939 16.5517 14.8939 16.5517L14.8934 16.5506L14.8922 16.5484L14.8898 16.5436L14.8842 16.5329C14.8802 16.5252 14.8755 16.5165 14.8702 16.5069C14.8596 16.4876 14.8464 16.4645 14.8304 16.4381C14.7984 16.3853 14.7549 16.319 14.6984 16.2437C14.5859 16.0938 14.4194 15.9049 14.1872 15.7191C13.7102 15.3375 12.9929 15 12 15C11.0071 15 10.2898 15.3375 9.81281 15.7191C9.58063 15.9049 9.41406 16.0938 9.30156 16.2437C9.24515 16.319 9.20164 16.3853 9.16963 16.4381C9.1536 16.4645 9.14036 16.4876 9.12977 16.5069C9.12446 16.5165 9.11981 16.5252 9.11579 16.5329L9.11022 16.5436L9.10778 16.5484L9.10665 16.5506L9.1061 16.5517C9.1061 16.5517 9.10557 16.5528 9.99992 17L9.10557 16.5528C8.85858 17.0468 9.05881 17.6474 9.55279 17.8944Z" fill="black"/>
<path fill-rule="evenodd" clip-rule="evenodd" d="M4 5C4 3.34315 5.34315 2 7 2H12.8265C13.2262 2 13.6093 2.15952 13.891 2.44317L19.5645 8.15778C19.8434 8.43877 20 8.81866 20 9.21461V19C20 20.6569 18.6569 22 17 22H7C5.34315 22 4 20.6569 4 19V5ZM7 4C6.44772 4 6 4.44772 6 5V19C6 19.5523 6.44772 20 7 20H17C17.5523 20 18 19.5523 18 19V9.98489H15.0093C13.3524 9.98489 12.0093 8.64174 12.0093 6.98488L12.0093 4H7ZM14.0093 5.40105L16.5746 7.98489H15.0093C14.457 7.98489 14.0093 7.53717 14.0093 6.98489L14.0093 5.40105Z" fill="black"/>
</svg>

<svg xmlns="http://www.w3.org/2000/svg" width="24" height="24" fill="none" viewBox="0 0 24 24"><path fill="#000" fill-rule="evenodd" d="M4 5c0-1.6569 1.3431-3 3-3h5.8265a1.5 1.5 0 0 1 1.0645.4432l5.6735 5.7146c.2789.281.4355.6609.4355 1.0568V19c0 1.6569-1.3431 3-3 3H7c-1.6569 0-3-1.3431-3-3zm3-1c-.5523 0-1 .4477-1 1v14c0 .5523.4477 1 1 1h10c.5523 0 1-.4477 1-1V9.9849h-2.9907c-1.6569 0-3-1.3432-3-3V4zm7.0093 1.401 2.5653 2.5839h-1.5653c-.5523 0-1-.4477-1-1zM11 12.5c0 .8284-.6716 1.5-1.5 1.5S8 13.3284 8 12.5 8.6716 11 9.5 11s1.5.6716 1.5 1.5m3.5 1.5c.8284 0 1.5-.6716 1.5-1.5s-.6716-1.5-1.5-1.5-1.5.6716-1.5 1.5.6716 1.5 1.5 1.5m-3.619 3.4731c-.2547.475-.843.664-1.3282.4213-.494-.247-.6942-.8476-.4472-1.3416L9.9999 17c-.8943-.4472-.8938-.4483-.8938-.4483l.0005-.0011.0012-.0022.0024-.0048.0056-.0107.014-.026a2 2 0 0 1 .0398-.0688 2.4 2.4 0 0 1 .132-.1943 2.92 2.92 0 0 1 .5112-.5247C10.2898 15.3375 11.0071 15 12 15s1.7102.3375 2.1872.7191c.2322.1858.3987.3747.5112.5247.0565.0752.1.1415.132.1943a2 2 0 0 1 .0538.0948l.0056.0107.0024.0048.0012.0022.0005.0011s.0005.0011-.8939.4483l.8944-.4472c.247.494.0468 1.0946-.4472 1.3416-.4852.2427-1.0735.0537-1.3282-.4213a.5.5 0 0 0-.0206-.0293.92.92 0 0 0-.1606-.1629C12.7898 17.1625 12.5071 17 12 17s-.7898.1625-.9378.2809a.92.92 0 0 0-.1606.1629.5.5 0 0 0-.0206.0293"/></svg>
